X:223
T: Kranzsingen
N: A0271B
O: Europa, Mitteleuropa, Deutschland
N: Geistl Ringeltentze 1550 No. 2
R: Romanze, Ballade, Lied
M: 4/1
L: 1/2
K: F
c | c2c2d2c2 | c2B2A2z
A | A2c2c3B | A2G2F2z
F | F2G2A3G | F2G2A3
A | A2c2c2A2 | B2G2F3

